!!!ONB: MCCC : IJH0444_03 : Extracted Monophonic Melody
!!!COM: Haydn, Joseph
!!!OPR: String Quartet in E-flat major
!!!OMV: 3
!!!SCT: Hob.III:27 ; Op.17 No.3
!!!ODT: 1771///
**kern
*thru
*k[b-e-a-d-]
*A-:
*clefG
*M3/4
4ee-
8cc
8a-
8g
8e-
=1
4a-
4.A-
8ee-
=2
8.ee-
32dd-
32ee-
8ff
8dd-
8dd-
8dd-
=3
8.dd-
16b-
8cc
8ee-
8ee-
8ee-
=4
8.ee-
32dd-
32ee-
8ff
8dd-
8b-
8g
=5
4g
4a-
4r
=6
4ee-
8cc
8a-
8g
8e-
=7
4a-
4.A-
8g-
=8
8e
8f
4f
8a-
16g
16f
=9
8f
8e-
8e-
8a-
8cc
8ee-
=10
8.ee-
32dd-
32ee-
8ff
8ee-
8dd-
8cc
=11
4cc
4b-
4r
=12
2.bb-[
=13
4bb-]
8gg
8ee-
8dd
8b-
=14
4.ee-
16gg
16ee-
8ff
16aa-
16ff
=15
8gg
8bb-
8gg
8ee-
8dd
8b-
=16
2ee-
4ee
=17
4ee
8ff
8gg
8aa-
8dd
=18
4dd
8ee-
8ff
8gg-
8ee-
=19
2.a
=20
2.b-
=21
2cc-
4ee-
=22
4ee-
4dd-
4cc-
=23
2.b-
=24
2.b--
=25
4ee--
4ff-
4dd
=26
8dd-
8cc
4.cc
8ee-
=27
8ee-
8dd-
4.dd-
32cc
32dd-
32ee-
32dd-
=28
2aa-
4ff
=29
8cc
8b
4.b
8dd
=30
8dd
8cc
4.ee-
8g
=31
8.a-
32g
32a-
4.aa-
8a-
=32
8g
8bb-
8bb-
8bb-
8bb-
8bb-
=33
8.bb-
32aa-
32bb-
8ccc
8aa-
8gg
8ff
=34
2.ee-[
=35
8ee-]
8bb-
8bb-
8bb-
8bb-
8bb-
=36
8.bb-
32aa-
32bb-
8ccc
8aa-
8gg
8ff
=37
16ee-
16aa-
8aa-
16r
16gg
8gg
16r
16ccc
8ccc
=38
16r
16bb-
16ccc
16ddd
16eee-
16fff
16ggg
16aaa-
16bbb-
16ggg
16fff
16eee-
=39
16ddd
16ccc
16aaa-
16fff
2fff
=40
8eee-
8G
8B-
8e-
8g
8b-
=41
8.b-
32cc
32a-
8g
8a-
8f
8d
=42
8e-
8G
8B-
8e-
8g
8b-
=43
8.b-
48ee-
48dd
48cc
8b-
8a-
8f
8d
=44
4d
4e-
4r
=45
4bb-
8gg
8ee-
8dd
8b-
=46
4ee-
4.e-
8ee-
=47
8ee-
8dd-
4.dd-
8dd-
=48
8dd-
8cc
4.gg
8b-
=49
8a-
16g
16f
4.ff
8B
=50
4B
4c
4r
=51
4ee-
8cc
8a
8g-
8e-
=52
8d-
16c
16B-
2B-
=53
4dd-
8b-
8g
8f-
8d-
=54
8c
8ee-
8cc
8a-
8g
8e-
=55
4a-
4.A-
8ee-
=56
8.ee-
32dd-
32ee-
8ff
8dd-
8dd-
8dd-
=57
8.dd-
16b-
8cc
8ee-
8ee-
8ee-
=58
8.ee-
32dd-
32ee-
8ff
8dd-
8b-
8a-
=59
2.ee-
=60
2.ff-
=61
2.ee-
=62
2.dd-
=63
8cc-
8ee-
8cc-
8a-
8e-
8ee-
=64
8ee-
8dd-
8b-
8g
8e-
8dd-
=65
8cc-
8ee-
8cc-
8a-
16e-
16a-
16cc-
16ee-
=66
8ee-
8dd-
8b-
8g
16e-
16g
16b-
16dd-
=67
8cc-
8ff-
8ff-
8ff-
8ff-
8gg-
=68
8.aa-
16gg-
8ff-
8ff-
8ff-
8gg-
=69
8.aa-
16gg-
8ff-
8ff-
8ff-
8ee-
=70
8ee-
8dd
4.dd
8ff
=71
8ff
8ee-
4.ddd-
8dd-
=72
8cc
8ee-
8ee-
8ee-
8ee-
8ee-
=73
8.ee-
32dd-
32ee-
8ff
8dd-
8cc
8b-
=74
2.a-[
=75
8a-]
8ee-
8ee-
8ee-
8ee-
8ee-
=76
8.ee-
32dd-
32ee-
8ff
8dd-
8cc
8b-
=77
16a-
16dd-
8dd-
16r
16cc
8cc
16r
16ff
8ff
=78
16r
16ee-
16ff
16gg
16aa-
16bb-
16ccc
16ddd-
16eee-
16ccc
16bb-
16aa-
=79
16gg
16ff
16ddd-
16bb-
2bb-
=80
8aa-
8c
8e-
8a-
8cc
8ee-
=81
8.ee-
32ff
32dd-
8cc
8dd-
8b-
8g
=82
8a-
8c
8e-
8a-
8cc
8ee-
=83
8.ee-
32aa-
32ff
8ee-
8dd-
8b-
8g
=84
4g
4a-
4r
==
*-
